X: 41053
T: Trip To Miriam's, The
R: reel
M: 4/4
K: Dmajor
|:d ~A3 defd|e ~B3 effe|~f3 a b ~f3|~e3 d eefe|
d ~A3 defd|e ~B3 effe|~f3 a b ~f3|edef d4:|
|:f3a bfaf|defd edB/c/d|AddB ddcd|dBdd B/c/deg|
~f3 a b ~f3|d3 f edB/c/d|~A3B defa-|1 afef d3 g:|2 afef d4||

